actions/symbolic/window-restore-symbolic-rtl.svg

<?xml version="1.0" encoding="UTF-8" standalone="no"?>
<svg
   height="16"
   width="16"
   version="1.1"
   id="svg1"
   xmlns="http://www.w3.org/2000/svg"
   xmlns:svg="http://www.w3.org/2000/svg">
  <defs
     id="defs1" />
  <path
     id="path1-0"
     style="fill:#555761;fill-opacity:1;stroke-width:4;stroke-linecap:round;stroke-linejoin:round;-inkscape-stroke:none"
     d="m 3.1074226,2 c 0.191686,-1e-7 0.384349,0.073802 0.53125,0.2207031 l 2,2 1.1171871,-1.1054687 C 7.2165333,2.6593698 7.9985894,2.9847153 8.0000004,3.6328125 V 7.2480469 C 7.9996714,7.6624405 7.6643919,7.998594 7.2500004,8 H 3.5625006 C 2.9219466,8.00194 2.6014526,7.2260742 3.0566406,6.7753906 L 4.2167976,5.6269531 2.2246096,3.6347656 c -0.293776,-0.2938294 -0.293802,-0.7667451 0,-1.0605468 L 2.5781256,2.2207031 C 2.7250266,2.0738023 2.9157366,2.0000001 3.1074226,2 Z m 9.3339844,6 c 0.640553,-0.0019 0.961048,0.7739258 0.505859,1.2246094 l -1.160156,1.1484376 1.992187,1.992187 c 0.293776,0.29383 0.293802,0.766746 0,1.060547 l -0.353515,0.353516 c -0.293802,0.293802 -0.766746,0.293803 -1.060547,0 l -2,-2 -1.1171878,1.105469 C 8.7873737,13.34063 8.0053176,13.015285 8.0039066,12.367188 V 8.7519531 C 8.0042356,8.3375595 8.339515,8.001406 8.7539066,8 Z" />
</svg>

<svg
        xmlns='http://www.w3.org/2000/svg'
        xmlns:svg='http://www.w3.org/2000/svg'
        id='svg1'
        width='16'
        height='16'>
  <path
          id='path1-0'
          fill='url(#gpa:foreground) #555761'
          fill-opacity='1'
          fill-rule='nonzero'
          stroke-width='4'
          stroke-linecap='round'
          stroke-linejoin='round'
          d='M 3.10742 2 C 3.29911 2, 3.49177 2.0738, 3.63867 2.2207 L 5.63867 4.2207 L 6.75586 3.11523 C 7.21653 2.65937, 7.99859 2.98472, 8 3.63281 L 8 7.24805 C 7.99967 7.66244, 7.66439 7.99859, 7.25 8 L 3.5625 8 C 2.92195 8.00194, 2.60145 7.22607, 3.05664 6.77539 L 4.2168 5.62695 L 2.22461 3.63477 C 1.93083 3.34094, 1.93081 2.86802, 2.22461 2.57422 L 2.57813 2.2207 C 2.72503 2.0738, 2.91574 2, 3.10742 2 Z M 12.4414 8 C 13.082 7.9981, 13.4025 8.77393, 12.9473 9.22461 L 11.7871 10.373 L 13.7793 12.3652 C 14.0731 12.6591, 14.0731 13.132, 13.7793 13.4258 L 13.4258 13.7793 C 13.132 14.0731, 12.659 14.0731, 12.3652 13.7793 L 10.3652 11.7793 L 9.24805 12.8848 C 8.78737 13.3406, 8.00532 13.0153, 8.00391 12.3672 L 8.00391 8.75195 C 8.00424 8.33756, 8.33951 8.00141, 8.75391 8 Z'
          class="foreground">
  </path>
</svg>
